src/images/Icons/Light/LinkedIn.svg

<svg fill="none" height="40" viewBox="0 0 41 40" width="41" xmlns="http://www.w3.org/2000/svg"><g fill="#cd6b55"><path d="m15.6356 18.9822c0-.9241-.7489-1.6733-1.6728-1.6733-.9238 0-1.6728.7492-1.6728 1.6733v7.3427c0 .9241.749 1.6733 1.6728 1.6733.9239 0 1.6728-.7492 1.6728-1.6733z"/><path d="m13.9631 15.8755c1.0702 0 1.9378-.8675 1.9378-1.9377s-.8676-1.9378-1.9378-1.9378c-1.0701 0-1.9377.8676-1.9377 1.9378s.8676 1.9377 1.9377 1.9377z"/><path d="m17.8389 17.3089h2.832c.0225.0001.0447.0048.0653.0137.0206.009.0392.022.0546.0384.0154.0163.0274.0356.0351.0567.0077.0212.011.0436.0098.066 0 0-.011 1.2678 0 1.265.011-.0027.0421.0366.0668 0 .3122-.5247.7577-.9574 1.2913-1.2542.5336-.2967 1.1362-.447 1.7467-.4355.1993-.0185.4002-.0114.5977.0211.6723-.0093 1.3306.1919 1.8828.5755s.9705.9304 1.1964 1.5636c.2808.9669.4123 1.971.3899 2.9776v5.8032h-3.3547v-5.8032s.2646-2.2453-1.7272-2.2453-1.9158 2.2453-1.9158 2.2453v5.6275c0 .0463-.0184.0908-.0512.1236s-.0773.0512-.1236.0512h-2.9959c-.0464 0-.0908-.0184-.1236-.0512s-.0512-.0773-.0512-.1236v-10.3433c.0007-.0459.0194-.0897.0521-.1219.0327-.0321.0768-.0502.1227-.0502z"/></g></svg>

<svg width="41" height="40" viewBox="0 0 41 40" fill="none" xmlns="http://www.w3.org/2000/svg">
<path d="M15.6356 18.9822C15.6356 18.0581 14.8867 17.3089 13.9628 17.3089C13.039 17.3089 12.29 18.0581 12.29 18.9822V26.3249C12.29 27.249 13.039 27.9982 13.9628 27.9982C14.8867 27.9982 15.6356 27.249 15.6356 26.3249V18.9822Z" fill="#CD6B55"/>
<path d="M13.9631 15.8755C15.0333 15.8755 15.9009 15.008 15.9009 13.9378C15.9009 12.8676 15.0333 12 13.9631 12C12.893 12 12.0254 12.8676 12.0254 13.9378C12.0254 15.008 12.893 15.8755 13.9631 15.8755Z" fill="#CD6B55"/>
<path d="M17.8389 17.3089H20.6709C20.6934 17.309 20.7156 17.3137 20.7362 17.3226C20.7568 17.3316 20.7754 17.3446 20.7908 17.361C20.8062 17.3773 20.8182 17.3966 20.8259 17.4177C20.8336 17.4389 20.8369 17.4613 20.8357 17.4837C20.8357 17.4837 20.8247 18.7515 20.8357 18.7487C20.8467 18.746 20.8778 18.7853 20.9025 18.7487C21.2147 18.224 21.6602 17.7913 22.1938 17.4945C22.7274 17.1978 23.33 17.0475 23.9405 17.059C24.1398 17.0405 24.3407 17.0476 24.5382 17.0801C25.2105 17.0708 25.8688 17.272 26.421 17.6556C26.9732 18.0392 27.3915 18.586 27.6174 19.2192C27.8982 20.1861 28.0297 21.1902 28.0073 22.1968V28H24.6526V22.1968C24.6526 22.1968 24.9172 19.9515 22.9254 19.9515C20.9336 19.9515 21.0096 22.1968 21.0096 22.1968V27.8243C21.0096 27.8706 20.9912 27.9151 20.9584 27.9479C20.9256 27.9807 20.8811 27.9991 20.8348 27.9991H17.8389C17.7925 27.9991 17.7481 27.9807 17.7153 27.9479C17.6825 27.9151 17.6641 27.8706 17.6641 27.8243V17.481C17.6648 17.4351 17.6835 17.3913 17.7162 17.3591C17.7489 17.327 17.793 17.3089 17.8389 17.3089Z" fill="#CD6B55"/>
</svg>
